X:1
T:The Earl's Chair
R:reel
M:4/4
L:1/8
K:D
|:B2dB BAFA|B2dB BAFB|AF~F2 DF~F2|AddB ADFA|
|B2dB BAFA|B2dB BAFB|AFAB defd|1 edef d2dc:|2 edef d2df|]
|:e3f d2df|e2ef dBA2|e3f dcde|fedB ADFA|
|e2ef eB~B2|gB~B2 defg|afbf afeg|fedB ADFA:|